groups/amino_sidechains/threonine.svg

<?xml version='1.0' encoding='iso-8859-1'?>
<svg version='1.1' baseProfile='full'
              xmlns='http://www.w3.org/2000/svg'
                      xmlns:rdkit='http://www.rdkit.org/xml'
                      xmlns:xlink='http://www.w3.org/1999/xlink'
                  xml:space='preserve'
width='256px' height='256px' viewBox='0 0 256 256'>
<!-- END OF HEADER -->
<rect style='opacity:1.0;fill:#FFFFFF;stroke:none' width='256.0' height='256.0' x='0.0' y='0.0'> </rect>
<path class='bond-0 atom-1 atom-0' d='M 107.5,138.1 L 107.2,137.7' style='fill:none;fill-rule:evenodd;stroke:#000000;stroke-width:1.0px;stroke-linecap:butt;stroke-linejoin:miter;stroke-opacity:1' />
<path class='bond-0 atom-1 atom-0' d='M 104.5,140.1 L 104.0,139.2' style='fill:none;fill-rule:evenodd;stroke:#000000;stroke-width:1.0px;stroke-linecap:butt;stroke-linejoin:miter;stroke-opacity:1' />
<path class='bond-0 atom-1 atom-0' d='M 101.5,142.1 L 100.8,140.7' style='fill:none;fill-rule:evenodd;stroke:#000000;stroke-width:1.0px;stroke-linecap:butt;stroke-linejoin:miter;stroke-opacity:1' />
<path class='bond-0 atom-1 atom-0' d='M 98.6,144.1 L 97.5,142.3' style='fill:none;fill-rule:evenodd;stroke:#000000;stroke-width:1.0px;stroke-linecap:butt;stroke-linejoin:miter;stroke-opacity:1' />
<path class='bond-0 atom-1 atom-0' d='M 95.6,146.1 L 94.3,143.8' style='fill:none;fill-rule:evenodd;stroke:#000000;stroke-width:1.0px;stroke-linecap:butt;stroke-linejoin:miter;stroke-opacity:1' />
<path class='bond-0 atom-1 atom-0' d='M 92.7,148.1 L 91.1,145.3' style='fill:none;fill-rule:evenodd;stroke:#000000;stroke-width:1.0px;stroke-linecap:butt;stroke-linejoin:miter;stroke-opacity:1' />
<path class='bond-0 atom-1 atom-0' d='M 89.7,150.1 L 87.9,146.9' style='fill:none;fill-rule:evenodd;stroke:#000000;stroke-width:1.0px;stroke-linecap:butt;stroke-linejoin:miter;stroke-opacity:1' />
<path class='bond-0 atom-1 atom-0' d='M 86.8,152.1 L 84.7,148.4' style='fill:none;fill-rule:evenodd;stroke:#000000;stroke-width:1.0px;stroke-linecap:butt;stroke-linejoin:miter;stroke-opacity:1' />
<path class='bond-0 atom-1 atom-0' d='M 83.8,154.1 L 81.4,150.0' style='fill:none;fill-rule:evenodd;stroke:#000000;stroke-width:1.0px;stroke-linecap:butt;stroke-linejoin:miter;stroke-opacity:1' />
<path class='bond-0 atom-1 atom-0' d='M 80.9,156.1 L 78.2,151.5' style='fill:none;fill-rule:evenodd;stroke:#000000;stroke-width:1.0px;stroke-linecap:butt;stroke-linejoin:miter;stroke-opacity:1' />
<path class='bond-0 atom-1 atom-0' d='M 77.9,158.1 L 75.0,153.0' style='fill:none;fill-rule:evenodd;stroke:#000000;stroke-width:1.0px;stroke-linecap:butt;stroke-linejoin:miter;stroke-opacity:1' />
<path class='bond-0 atom-1 atom-0' d='M 75.0,160.1 L 71.8,154.6' style='fill:none;fill-rule:evenodd;stroke:#000000;stroke-width:1.0px;stroke-linecap:butt;stroke-linejoin:miter;stroke-opacity:1' />
<path class='bond-0 atom-1 atom-0' d='M 72.0,162.1 L 68.6,156.1' style='fill:none;fill-rule:evenodd;stroke:#000000;stroke-width:1.0px;stroke-linecap:butt;stroke-linejoin:miter;stroke-opacity:1' />
<path class='bond-0 atom-1 atom-0' d='M 69.1,164.1 L 65.3,157.6' style='fill:none;fill-rule:evenodd;stroke:#000000;stroke-width:1.0px;stroke-linecap:butt;stroke-linejoin:miter;stroke-opacity:1' />
<path class='bond-0 atom-1 atom-0' d='M 66.1,166.1 L 62.1,159.2' style='fill:none;fill-rule:evenodd;stroke:#000000;stroke-width:1.0px;stroke-linecap:butt;stroke-linejoin:miter;stroke-opacity:1' />
<path class='bond-0 atom-1 atom-0' d='M 63.1,168.1 L 58.9,160.7' style='fill:none;fill-rule:evenodd;stroke:#000000;stroke-width:1.0px;stroke-linecap:butt;stroke-linejoin:miter;stroke-opacity:1' />
<path class='bond-0 atom-1 atom-0' d='M 60.2,170.1 L 55.7,162.2' style='fill:none;fill-rule:evenodd;stroke:#000000;stroke-width:1.0px;stroke-linecap:butt;stroke-linejoin:miter;stroke-opacity:1' />
<path class='bond-0 atom-1 atom-0' d='M 57.2,172.1 L 52.5,163.8' style='fill:none;fill-rule:evenodd;stroke:#000000;stroke-width:1.0px;stroke-linecap:butt;stroke-linejoin:miter;stroke-opacity:1' />
<path class='bond-0 atom-1 atom-0' d='M 54.3,174.1 L 49.2,165.3' style='fill:none;fill-rule:evenodd;stroke:#000000;stroke-width:1.0px;stroke-linecap:butt;stroke-linejoin:miter;stroke-opacity:1' />
<path class='bond-0 atom-1 atom-0' d='M 51.3,176.1 L 46.0,166.8' style='fill:none;fill-rule:evenodd;stroke:#000000;stroke-width:1.0px;stroke-linecap:butt;stroke-linejoin:miter;stroke-opacity:1' />
<path class='bond-0 atom-1 atom-0' d='M 48.4,178.1 L 42.8,168.4' style='fill:none;fill-rule:evenodd;stroke:#000000;stroke-width:1.0px;stroke-linecap:butt;stroke-linejoin:miter;stroke-opacity:1' />
<path class='bond-0 atom-1 atom-0' d='M 45.4,180.1 L 39.6,169.9' style='fill:none;fill-rule:evenodd;stroke:#000000;stroke-width:1.0px;stroke-linecap:butt;stroke-linejoin:miter;stroke-opacity:1' />
<path class='bond-0 atom-1 atom-0' d='M 42.5,182.1 L 36.4,171.4' style='fill:none;fill-rule:evenodd;stroke:#000000;stroke-width:1.0px;stroke-linecap:butt;stroke-linejoin:miter;stroke-opacity:1' />
<path class='bond-1 atom-1 atom-2' d='M 110.4,136.1 L 110.6,77.0' style='fill:none;fill-rule:evenodd;stroke:#000000;stroke-width:2.0px;stroke-linecap:butt;stroke-linejoin:miter;stroke-opacity:1' />
<path class='bond-2 atom-1 atom-3' d='M 110.4,136.1 L 166.4,168.7' style='fill:none;fill-rule:evenodd;stroke:#000000;stroke-width:2.0px;stroke-linecap:butt;stroke-linejoin:miter;stroke-opacity:1' />
<path d='M 110.4,133.2 L 110.4,136.1 L 113.2,137.8' style='fill:none;stroke:#000000;stroke-width:2.0px;stroke-linecap:butt;stroke-linejoin:miter;stroke-miterlimit:10;stroke-opacity:1;' />
<path class='atom-1' d='M59.7375,212.273 C62.3999,210.748 60.3676,207.198 57.7052,208.723 C55.0429,210.247 53.0106,206.697 55.673,205.173 C58.3353,203.649 56.303,200.099 53.6407,201.623 C50.9783,203.147 48.9461,199.597 51.6084,198.073 C54.2707,196.549 52.2385,192.999 49.5761,194.523 C46.9138,196.047 44.8815,192.497 47.5438,190.973 C50.2062,189.449 48.1739,185.899 45.5116,187.423 C42.8492,188.947 40.8169,185.397 43.4793,183.873 C46.1416,182.349 44.1093,178.799 41.447,180.323 C38.7847,181.847 36.7524,178.297 39.4147,176.773 C42.0771,175.249 40.0448,171.699 37.3824,173.223 C34.7201,174.747 32.6878,171.197 35.3502,169.673 C38.0125,168.149 35.9802,164.599 33.3179,166.123 C30.6555,167.647 28.6233,164.098 31.2856,162.573 C33.9479,161.049 31.9157,157.499 29.2533,159.023 C26.591,160.548 24.5587,156.998 27.221,155.473 C29.8834,153.949 27.8511,150.399 25.1888,151.924 C22.5264,153.448 20.4941,149.898 23.1565,148.374 C25.8188,146.849 23.7865,143.299 21.1242,144.824 C18.4619,146.348 16.4296,142.798 19.0919,141.274' style='fill:none;stroke:#7F7F7F;stroke-width:2.0px;stroke-linecap:butt;stroke-linejoin:miter;stroke-opacity:1' />
<text x='98.7' y='74.3' class='atom-2' style='font-size:40px;font-style:normal;font-weight:normal;fill-opacity:1;stroke:none;font-family:sans-serif;text-anchor:start;fill:#000000' >O</text>
<text x='126.3' y='74.3' class='atom-2' style='font-size:40px;font-style:normal;font-weight:normal;fill-opacity:1;stroke:none;font-family:sans-serif;text-anchor:start;fill:#000000' >H</text>
<text x='169.1' y='197.3' class='atom-3' style='font-size:40px;font-style:normal;font-weight:normal;fill-opacity:1;stroke:none;font-family:sans-serif;text-anchor:start;fill:#000000' >C</text>
<text x='196.7' y='197.3' class='atom-3' style='font-size:40px;font-style:normal;font-weight:normal;fill-opacity:1;stroke:none;font-family:sans-serif;text-anchor:start;fill:#000000' >H</text>
<text x='224.3' y='213.3' class='atom-3' style='font-size:26px;font-style:normal;font-weight:normal;fill-opacity:1;stroke:none;font-family:sans-serif;text-anchor:start;fill:#000000' >3</text>
<text x='57.7' y='125.5' class='note' style='font-size:20px;font-style:normal;font-weight:normal;fill-opacity:1;stroke:none;font-family:sans-serif;text-anchor:start;fill:#000000' >(</text>
<text x='64.6' y='125.5' class='note' style='font-size:20px;font-style:normal;font-weight:normal;fill-opacity:1;stroke:none;font-family:sans-serif;text-anchor:start;fill:#000000' >S</text>
<text x='78.4' y='125.5' class='note' style='font-size:20px;font-style:normal;font-weight:normal;fill-opacity:1;stroke:none;font-family:sans-serif;text-anchor:start;fill:#000000' >)</text>
</svg>

<svg height="256" viewBox="0 0 256 256" width="256" xmlns="http://www.w3.org/2000/svg"><path d="m0 0h256v256h-256z" fill="#fff"/><g fill="none"><path d="m107.5 138.1-.3-.4" stroke="#000"/><path d="m104.5 140.1-.5-.9" stroke="#000"/><path d="m101.5 142.1-.7-1.4" stroke="#000"/><path d="m98.6 144.1-1.1-1.8" stroke="#000"/><path d="m95.6 146.1-1.3-2.3" stroke="#000"/><path d="m92.7 148.1-1.6-2.8" stroke="#000"/><path d="m89.7 150.1-1.8-3.2" stroke="#000"/><path d="m86.8 152.1-2.1-3.7" stroke="#000"/><path d="m83.8 154.1-2.4-4.1" stroke="#000"/><path d="m80.9 156.1-2.7-4.6" stroke="#000"/><path d="m77.9 158.1-2.9-5.1" stroke="#000"/><path d="m75 160.1-3.2-5.5" stroke="#000"/><path d="m72 162.1-3.4-6" stroke="#000"/><path d="m69.1 164.1-3.8-6.5" stroke="#000"/><path d="m66.1 166.1-4-6.9" stroke="#000"/><path d="m63.1 168.1-4.2-7.4" stroke="#000"/><path d="m60.2 170.1-4.5-7.9" stroke="#000"/><path d="m57.2 172.1-4.7-8.3" stroke="#000"/><path d="m54.3 174.1-5.1-8.8" stroke="#000"/><path d="m51.3 176.1-5.3-9.3" stroke="#000"/><path d="m48.4 178.1-5.6-9.7" stroke="#000"/><path d="m45.4 180.1-5.8-10.2" stroke="#000"/><path d="m42.5 182.1-6.1-10.7" stroke="#000"/><path d="m110.4 136.1.2-59.1" stroke="#000" stroke-width="2"/><path d="m110.4 136.1 56 32.6" stroke="#000" stroke-width="2"/><path d="m110.4 133.2v2.9l2.8 1.7" stroke="#000" stroke-miterlimit="10" stroke-width="2"/><path d="m59.738 212.273c2.662-1.525.63-5.075-2.033-3.55-2.662 1.524-4.694-2.026-2.032-3.55s.63-5.074-2.032-3.55c-2.663 1.524-4.695-2.026-2.033-3.55 2.663-1.524.631-5.074-2.032-3.55-2.662 1.524-4.694-2.026-2.032-3.55s.63-5.074-2.032-3.55c-2.663 1.524-4.695-2.026-2.033-3.55 2.663-1.524.63-5.074-2.032-3.55s-4.695-2.026-2.032-3.55c2.662-1.524.63-5.074-2.033-3.55-2.662 1.524-4.694-2.026-2.032-3.55 2.663-1.524.63-5.074-2.032-3.55s-4.695-2.025-2.032-3.55c2.662-1.524.63-5.074-2.033-3.55-2.662 1.525-4.694-2.025-2.032-3.55 2.662-1.524.63-5.074-2.032-3.549-2.663 1.524-4.695-2.026-2.032-3.55 2.662-1.525.63-5.075-2.033-3.55-2.662 1.524-4.694-2.026-2.032-3.55" stroke="#7f7f7f" stroke-width="2"/></g><text font-family="sans-serif" font-size="40" x="98.7" y="74.3">O</text><text font-family="sans-serif" font-size="40" x="126.3" y="74.3">H</text><text font-family="sans-serif" font-size="40" x="169.1" y="197.3">C</text><text font-family="sans-serif" font-size="40" x="196.7" y="197.3">H</text><text font-family="sans-serif" font-size="26" x="224.3" y="213.3">3</text><text font-family="sans-serif" font-size="20" x="57.7" y="125.5">(</text><text font-family="sans-serif" font-size="20" x="64.6" y="125.5">S</text><text font-family="sans-serif" font-size="20" x="78.4" y="125.5">)</text></svg>
